icons/modern/palm-down-hand-medium-light.svg

<svg width="32" height="32" viewBox="0 0 32 32" fill="none" xmlns="http://www.w3.org/2000/svg">
<path d="M14.8053 18.0621C13.6276 17.8406 12.8478 16.6976 13.0674 15.5096L14.0064 10.3887L18.2748 11.1881L17.3326 16.3091C17.1162 17.497 15.983 18.2836 14.8053 18.0621Z" fill="url(#paint0_radial_20020_6765)"/>
<path d="M14.8053 18.0621C13.6276 17.8406 12.8478 16.6976 13.0674 15.5096L14.0064 10.3887L18.2748 11.1881L17.3326 16.3091C17.1162 17.497 15.983 18.2836 14.8053 18.0621Z" fill="url(#paint1_linear_20020_6765)"/>
<path d="M14.8053 18.0621C13.6276 17.8406 12.8478 16.6976 13.0674 15.5096L14.0064 10.3887L18.2748 11.1881L17.3326 16.3091C17.1162 17.497 15.983 18.2836 14.8053 18.0621Z" fill="url(#paint2_radial_20020_6765)"/>
<path d="M14.8053 18.0621C13.6276 17.8406 12.8478 16.6976 13.0674 15.5096L14.0064 10.3887L18.2748 11.1881L17.3326 16.3091C17.1162 17.497 15.983 18.2836 14.8053 18.0621Z" fill="url(#paint3_linear_20020_6765)"/>
<path d="M18.5637 20.1172C17.3597 19.9952 16.4832 18.9229 16.602 17.7189L17.1221 12.5337L21.4789 12.9703L20.9588 18.1555C20.84 19.3595 19.7676 20.2392 18.5637 20.1172Z" fill="url(#paint4_radial_20020_6765)"/>
<path d="M18.5637 20.1172C17.3597 19.9952 16.4832 18.9229 16.602 17.7189L17.1221 12.5337L21.4789 12.9703L20.9588 18.1555C20.84 19.3595 19.7676 20.2392 18.5637 20.1172Z" fill="url(#paint5_radial_20020_6765)"/>
<path d="M18.5637 20.1172C17.3597 19.9952 16.4832 18.9229 16.602 17.7189L17.1221 12.5337L21.4789 12.9703L20.9588 18.1555C20.84 19.3595 19.7676 20.2392 18.5637 20.1172Z" fill="url(#paint6_radial_20020_6765)"/>
<path d="M18.5637 20.1172C17.3597 19.9952 16.4832 18.9229 16.602 17.7189L17.1221 12.5337L21.4789 12.9703L20.9588 18.1555C20.84 19.3595 19.7676 20.2392 18.5637 20.1172Z" fill="url(#paint7_linear_20020_6765)"/>
<path d="M23.7232 20.8295C22.5353 21.051 21.3923 20.2644 21.1707 19.0765L20.0442 13.0649L24.5227 13.1529L25.4762 18.277C25.6945 19.465 24.9111 20.608 23.7232 20.8295Z" fill="url(#paint8_radial_20020_6765)"/>
<path d="M23.7232 20.8295C22.5353 21.051 21.3923 20.2644 21.1707 19.0765L20.0442 13.0649L24.5227 13.1529L25.4762 18.277C25.6945 19.465 24.9111 20.608 23.7232 20.8295Z" fill="url(#paint9_radial_20020_6765)"/>
<g filter="url(#filter0_iii_20020_6765)">
<path d="M12.4548 16.9644C12.4548 15.2627 13.3416 14.3892 14.8533 13.8854C15.8298 13.6743 19.3845 13.7368 19.3845 13.7368C20.5173 13.7368 21.1638 14.1847 21.822 14.7915L25.5798 18.0025C26.5642 18.9087 28.0639 19.1208 29.072 18.0806C30.1251 16.9954 30.0095 15.3462 28.7283 14.2368L22.9626 9.2492C21.6623 8.08053 21.0408 7.43198 18.6536 7.43198L9.6814 7.43197C4.85259 7.40308 1.90369 10.3618 1.90369 14.2368C1.90369 16.5806 3.98642 19.044 5.58765 20.7056L7.3064 22.339C8.66771 23.5462 10.4392 24.565 12.283 24.565H14.1111C14.7018 24.565 15.1635 24.5063 15.9001 24.9478C16.8055 25.4904 18.2302 25.3677 18.9783 24.6197C19.63 23.9679 19.8287 23.0327 19.4819 22.1754C18.8808 20.6786 17.2205 20.0493 15.6033 19.7368L14.4783 19.5806C13.033 19.479 12.4548 17.8462 12.4548 16.9644Z" fill="url(#paint10_linear_20020_6765)"/>
</g>
<path d="M12.4548 16.9644C12.4548 15.2627 13.3416 14.3892 14.8533 13.8854C15.8298 13.6743 19.3845 13.7368 19.3845 13.7368C20.5173 13.7368 21.1638 14.1847 21.822 14.7915L25.5798 18.0025C26.5642 18.9087 28.0639 19.1208 29.072 18.0806C30.1251 16.9954 30.0095 15.3462 28.7283 14.2368L22.9626 9.2492C21.6623 8.08053 21.0408 7.43198 18.6536 7.43198L9.6814 7.43197C4.85259 7.40308 1.90369 10.3618 1.90369 14.2368C1.90369 16.5806 3.98642 19.044 5.58765 20.7056L7.3064 22.339C8.66771 23.5462 10.4392 24.565 12.283 24.565H14.1111C14.7018 24.565 15.1635 24.5063 15.9001 24.9478C16.8055 25.4904 18.2302 25.3677 18.9783 24.6197C19.63 23.9679 19.8287 23.0327 19.4819 22.1754C18.8808 20.6786 17.2205 20.0493 15.6033 19.7368L14.4783 19.5806C13.033 19.479 12.4548 17.8462 12.4548 16.9644Z" fill="url(#paint11_radial_20020_6765)"/>
<g filter="url(#filter1_f_20020_6765)">
<path d="M21.2171 9.71346L27.9076 14.9831C28.2886 15.2832 28.3425 15.8405 28.026 16.208C27.7359 16.5449 27.2356 16.6021 26.877 16.3393L20.7146 11.8228C20.3045 11.5223 19.7954 11.3892 19.2907 11.4506L14.3109 12.0568C12.3035 12.3011 10.7942 14.0053 10.7942 16.0275V16.7972C10.7942 17.7511 11.1351 18.6736 11.7554 19.3983L11.9305 19.6029C12.4252 20.1809 13.1211 20.5493 13.8772 20.6337L15.7957 20.8476C16.4427 20.9198 17.0487 21.2004 17.5222 21.6472L18.368 22.4453C18.6542 22.7155 18.6649 23.1673 18.3917 23.4507C18.1341 23.7177 17.714 23.7404 17.4292 23.5026L16.9921 23.1375C16.4526 22.687 15.772 22.4402 15.0691 22.4402H12.8929C11.8819 22.4402 10.9084 22.0573 10.1683 21.3687L6.36568 17.8308C5.31636 16.8546 4.86957 15.3915 5.19446 13.9956L5.43303 12.9705C5.94762 10.7595 7.8871 9.17268 10.1562 9.10609L18.6247 8.85754C19.5625 8.83002 20.4801 9.13298 21.2171 9.71346Z" fill="#FFCFAC"/>
</g>
<defs>
<filter id="filter0_iii_20020_6765" x="1.90369" y="6.18176" width="29.1303" height="19.2507" filterUnits="userSpaceOnUse" color-interpolation-filters="sRGB">
<feFlood flood-opacity="0" result="BackgroundImageFix"/>
<feBlend mode="normal" in="SourceGraphic" in2="BackgroundImageFix" result="shape"/>
<feColorMatrix in="SourceAlpha" type="matrix" values="0 0 0 0 0 0 0 0 0 0 0 0 0 0 0 0 0 0 127 0" result="hardAlpha"/>
<feOffset dx="1.25" dy="-1.25"/>
<feGaussianBlur stdDeviation="0.75"/>
<feComposite in2="hardAlpha" operator="arithmetic" k2="-1" k3="1"/>
<feColorMatrix type="matrix" values="0 0 0 0 0.776471 0 0 0 0 0.541176 0 0 0 0 0.52549 0 0 0 1 0"/>
<feBlend mode="normal" in2="shape" result="effect1_innerShadow_20020_6765"/>
<feColorMatrix in="SourceAlpha" type="matrix" values="0 0 0 0 0 0 0 0 0 0 0 0 0 0 0 0 0 0 127 0" result="hardAlpha"/>
<feOffset dy="-0.4"/>
<feGaussianBlur stdDeviation="0.625"/>
<feComposite in2="hardAlpha" operator="arithmetic" k2="-1" k3="1"/>
<feColorMatrix type="matrix" values="0 0 0 0 0.701961 0 0 0 0 0.427451 0 0 0 0 0.564706 0 0 0 1 0"/>
<feBlend mode="normal" in2="effect1_innerShadow_20020_6765" result="effect2_innerShadow_20020_6765"/>
<feColorMatrix in="SourceAlpha" type="matrix" values="0 0 0 0 0 0 0 0 0 0 0 0 0 0 0 0 0 0 127 0" result="hardAlpha"/>
<feOffset dx="0.15" dy="0.15"/>
<feGaussianBlur stdDeviation="0.25"/>
<feComposite in2="hardAlpha" operator="arithmetic" k2="-1" k3="1"/>
<feColorMatrix type="matrix" values="0 0 0 0 0.8 0 0 0 0 0.647059 0 0 0 0 0.517647 0 0 0 1 0"/>
<feBlend mode="normal" in2="effect2_innerShadow_20020_6765" result="effect3_innerShadow_20020_6765"/>
</filter>
<filter id="filter1_f_20020_6765" x="3.09021" y="6.85583" width="27.1422" height="18.8112" filterUnits="userSpaceOnUse" color-interpolation-filters="sRGB">
<feFlood flood-opacity="0" result="BackgroundImageFix"/>
<feBlend mode="normal" in="SourceGraphic" in2="BackgroundImageFix" result="shape"/>
<feGaussianBlur stdDeviation="1" result="effect1_foregroundBlur_20020_6765"/>
</filter>
<radialGradient id="paint0_radial_20020_6765" cx="0" cy="0" r="1" gradientUnits="userSpaceOnUse" gradientTransform="translate(15.0663 17.0678) rotate(-72.9574) scale(3.96133 3.0891)">
<stop stop-color="#AD6D6D"/>
<stop offset="1" stop-color="#A05A4F"/>
</radialGradient>
<linearGradient id="paint1_linear_20020_6765" x1="16.9436" y1="17.7655" x2="15.6524" y2="17.6568" gradientUnits="userSpaceOnUse">
<stop stop-color="#955043"/>
<stop offset="1" stop-color="#955043" stop-opacity="0"/>
</linearGradient>
<radialGradient id="paint2_radial_20020_6765" cx="0" cy="0" r="1" gradientUnits="userSpaceOnUse" gradientTransform="translate(14.9017 13.8462) rotate(80.9581) scale(4.77812 3.99542)">
<stop offset="0.72718" stop-color="#AD6A86" stop-opacity="0"/>
<stop offset="0.909009" stop-color="#AD6A86"/>
</radialGradient>
<linearGradient id="paint3_linear_20020_6765" x1="12.9291" y1="15.54" x2="13.8479" y2="15.7145" gradientUnits="userSpaceOnUse">
<stop stop-color="#CB8B77"/>
<stop offset="1" stop-color="#CB8B77" stop-opacity="0"/>
</linearGradient>
<radialGradient id="paint4_radial_20020_6765" cx="0" cy="0" r="1" gradientUnits="userSpaceOnUse" gradientTransform="translate(18.5928 20.1285) rotate(-82.9416) scale(8.25115 2.21235)">
<stop stop-color="#C89084"/>
<stop offset="1" stop-color="#A9665F"/>
</radialGradient>
<radialGradient id="paint5_radial_20020_6765" cx="0" cy="0" r="1" gradientUnits="userSpaceOnUse" gradientTransform="translate(19.5442 13.5024) rotate(96.8313) scale(6.87836 5.87923)">
<stop offset="0.825321" stop-color="#AF6C8A" stop-opacity="0"/>
<stop offset="0.965343" stop-color="#AF6C8A"/>
</radialGradient>
<radialGradient id="paint6_radial_20020_6765" cx="0" cy="0" r="1" gradientUnits="userSpaceOnUse" gradientTransform="translate(16.064 19.5543) rotate(-56.0919) scale(7.22011 7.09831)">
<stop offset="0.635005" stop-color="#9E5851" stop-opacity="0"/>
<stop offset="0.900759" stop-color="#9E5851"/>
</radialGradient>
<linearGradient id="paint7_linear_20020_6765" x1="21.2426" y1="17.4166" x2="19.8607" y2="17.7385" gradientUnits="userSpaceOnUse">
<stop stop-color="#995A48"/>
<stop offset="1" stop-color="#995A48" stop-opacity="0"/>
</linearGradient>
<radialGradient id="paint8_radial_20020_6765" cx="0" cy="0" r="1" gradientUnits="userSpaceOnUse" gradientTransform="translate(24 20.8669) rotate(-105.244) scale(7.43863 1.61686)">
<stop stop-color="#CE9489"/>
<stop offset="1" stop-color="#B37566"/>
</radialGradient>
<radialGradient id="paint9_radial_20020_6765" cx="0" cy="0" r="1" gradientUnits="userSpaceOnUse" gradientTransform="translate(23.9817 13.7212) rotate(98.8826) scale(7.2324 4.46687)">
<stop offset="0.871517" stop-color="#B16D8B" stop-opacity="0"/>
<stop offset="0.996372" stop-color="#B16D8B"/>
</radialGradient>
<linearGradient id="paint10_linear_20020_6765" x1="9.27503" y1="22.7362" x2="23.3222" y2="12.1628" gradientUnits="userSpaceOnUse">
<stop stop-color="#E1A68E"/>
<stop offset="1" stop-color="#F9C69D"/>
</linearGradient>
<radialGradient id="paint11_radial_20020_6765" cx="0" cy="0" r="1" gradientUnits="userSpaceOnUse" gradientTransform="translate(2.6875 11.4832) rotate(24.8142) scale(6.40373 9.01085)">
<stop stop-color="#DFA987"/>
<stop offset="1" stop-color="#DFA987" stop-opacity="0"/>
</radialGradient>
</defs>
</svg>

<svg width="32" height="32" fill="none" xmlns="http://www.w3.org/2000/svg"><path d="M14.805 18.062a2.19 2.19 0 0 1-1.738-2.552l.94-5.121 4.268.8-.942 5.12a2.168 2.168 0 0 1-2.528 1.753Z" fill="url(#a)"/><path d="M14.805 18.062a2.19 2.19 0 0 1-1.738-2.552l.94-5.121 4.268.8-.942 5.12a2.168 2.168 0 0 1-2.528 1.753Z" fill="url(#b)"/><path d="M14.805 18.062a2.19 2.19 0 0 1-1.738-2.552l.94-5.121 4.268.8-.942 5.12a2.168 2.168 0 0 1-2.528 1.753Z" fill="url(#c)"/><path d="M14.805 18.062a2.19 2.19 0 0 1-1.738-2.552l.94-5.121 4.268.8-.942 5.12a2.168 2.168 0 0 1-2.528 1.753Z" fill="url(#d)"/><path d="M18.564 20.117a2.193 2.193 0 0 1-1.962-2.398l.52-5.185 4.357.436-.52 5.185a2.186 2.186 0 0 1-2.395 1.962Z" fill="url(#e)"/><path d="M18.564 20.117a2.193 2.193 0 0 1-1.962-2.398l.52-5.185 4.357.436-.52 5.185a2.186 2.186 0 0 1-2.395 1.962Z" fill="url(#f)"/><path d="M18.564 20.117a2.193 2.193 0 0 1-1.962-2.398l.52-5.185 4.357.436-.52 5.185a2.186 2.186 0 0 1-2.395 1.962Z" fill="url(#g)"/><path d="M18.564 20.117a2.193 2.193 0 0 1-1.962-2.398l.52-5.185 4.357.436-.52 5.185a2.186 2.186 0 0 1-2.395 1.962Z" fill="url(#h)"/><path d="M23.723 20.83a2.19 2.19 0 0 1-2.552-1.753l-1.127-6.012 4.479.088.953 5.124a2.193 2.193 0 0 1-1.753 2.552Z" fill="url(#i)"/><path d="M23.723 20.83a2.19 2.19 0 0 1-2.552-1.753l-1.127-6.012 4.479.088.953 5.124a2.193 2.193 0 0 1-1.753 2.552Z" fill="url(#j)"/><g filter="url(#k)"><path d="M12.455 16.964c0-1.701.887-2.575 2.398-3.079.977-.21 4.531-.148 4.531-.148 1.133 0 1.78.448 2.438 1.054l3.758 3.212c.984.906 2.484 1.118 3.492.078 1.053-1.086.938-2.735-.344-3.844l-5.765-4.988c-1.3-1.168-1.922-1.817-4.31-1.817H9.682c-4.828-.029-7.777 2.93-7.777 6.805 0 2.344 2.082 4.807 3.684 6.469l1.718 1.633c1.362 1.207 3.133 2.226 4.977 2.226h1.828c.59 0 1.053-.059 1.79.383.904.542 2.33.42 3.077-.328.652-.652.85-1.587.504-2.445-.601-1.496-2.261-2.126-3.879-2.438l-1.125-.156c-1.445-.102-2.023-1.735-2.023-2.617Z" fill="url(#l)"/></g><path d="M12.455 16.964c0-1.701.887-2.575 2.398-3.079.977-.21 4.531-.148 4.531-.148 1.133 0 1.78.448 2.438 1.054l3.758 3.212c.984.906 2.484 1.118 3.492.078 1.053-1.086.938-2.735-.344-3.844l-5.765-4.988c-1.3-1.168-1.922-1.817-4.31-1.817H9.682c-4.828-.029-7.777 2.93-7.777 6.805 0 2.344 2.082 4.807 3.684 6.469l1.718 1.633c1.362 1.207 3.133 2.226 4.977 2.226h1.828c.59 0 1.053-.059 1.79.383.904.542 2.33.42 3.077-.328.652-.652.85-1.587.504-2.445-.601-1.496-2.261-2.126-3.879-2.438l-1.125-.156c-1.445-.102-2.023-1.735-2.023-2.617Z" fill="url(#m)"/><g filter="url(#n)"><path d="m21.217 9.713 6.69 5.27a.852.852 0 0 1-1.03 1.356l-6.162-4.516a2 2 0 0 0-1.424-.372l-4.98.606a4 4 0 0 0-3.517 3.97v.77a4 4 0 0 0 .961 2.601l.175.205a3 3 0 0 0 1.947 1.03l1.919.215a3 3 0 0 1 1.726.8l.846.797a.707.707 0 0 1-.939 1.058l-.437-.366a3 3 0 0 0-1.923-.697h-2.176a4 4 0 0 1-2.725-1.071L6.366 17.83a4 4 0 0 1-1.172-3.835l.239-1.026a5 5 0 0 1 4.723-3.864l8.469-.248a4 4 0 0 1 2.592.855Z" fill="#FFCFAC"/></g><defs><radialGradient id="a" cx="0" cy="0" r="1" gradientUnits="userSpaceOnUse" gradientTransform="rotate(-72.957 19.075 -1.654) scale(3.96133 3.0891)"><stop stop-color="#AD6D6D"/><stop offset="1" stop-color="#A05A4F"/></radialGradient><radialGradient id="c" cx="0" cy="0" r="1" gradientUnits="userSpaceOnUse" gradientTransform="matrix(.75091 4.71875 -3.94577 .6279 14.902 13.846)"><stop offset=".727" stop-color="#AD6A86" stop-opacity="0"/><stop offset=".909" stop-color="#AD6A86"/></radialGradient><radialGradient id="e" cx="0" cy="0" r="1" gradientUnits="userSpaceOnUse" gradientTransform="rotate(-82.942 20.684 -.454) scale(8.25115 2.21235)"><stop stop-color="#C89084"/><stop offset="1" stop-color="#A9665F"/></radialGradient><radialGradient id="f" cx="0" cy="0" r="1" gradientUnits="userSpaceOnUse" gradientTransform="rotate(96.831 3.781 15.423) scale(6.87836 5.87923)"><stop offset=".825" stop-color="#AF6C8A" stop-opacity="0"/><stop offset=".965" stop-color="#AF6C8A"/></radialGradient><radialGradient id="g" cx="0" cy="0" r="1" gradientUnits="userSpaceOnUse" gradientTransform="rotate(-56.092 26.385 -5.3) scale(7.22011 7.09831)"><stop offset=".635" stop-color="#9E5851" stop-opacity="0"/><stop offset=".901" stop-color="#9E5851"/></radialGradient><radialGradient id="i" cx="0" cy="0" r="1" gradientUnits="userSpaceOnUse" gradientTransform="matrix(-1.95584 -7.1769 1.55997 -.42512 24 20.867)"><stop stop-color="#CE9489"/><stop offset="1" stop-color="#B37566"/></radialGradient><radialGradient id="j" cx="0" cy="0" r="1" gradientUnits="userSpaceOnUse" gradientTransform="matrix(-1.11676 7.14566 -4.4133 -.68973 23.982 13.721)"><stop offset=".872" stop-color="#B16D8B" stop-opacity="0"/><stop offset=".996" stop-color="#B16D8B"/></radialGradient><radialGradient id="m" cx="0" cy="0" r="1" gradientUnits="userSpaceOnUse" gradientTransform="rotate(24.814 -24.755 11.85) scale(6.40373 9.01085)"><stop stop-color="#DFA987"/><stop offset="1" stop-color="#DFA987" stop-opacity="0"/></radialGradient><linearGradient id="b" x1="16.944" y1="17.765" x2="15.652" y2="17.657" gradientUnits="userSpaceOnUse"><stop stop-color="#955043"/><stop offset="1" stop-color="#955043" stop-opacity="0"/></linearGradient><linearGradient id="d" x1="12.929" y1="15.54" x2="13.848" y2="15.714" gradientUnits="userSpaceOnUse"><stop stop-color="#CB8B77"/><stop offset="1" stop-color="#CB8B77" stop-opacity="0"/></linearGradient><linearGradient id="h" x1="21.243" y1="17.417" x2="19.861" y2="17.738" gradientUnits="userSpaceOnUse"><stop stop-color="#995A48"/><stop offset="1" stop-color="#995A48" stop-opacity="0"/></linearGradient><linearGradient id="l" x1="9.275" y1="22.736" x2="23.322" y2="12.163" gradientUnits="userSpaceOnUse"><stop stop-color="#E1A68E"/><stop offset="1" stop-color="#F9C69D"/></linearGradient><filter id="k" x="1.904" y="6.182" width="29.13" height="19.251" filterUnits="userSpaceOnUse" color-interpolation-filters="sRGB"><feFlood flood-opacity="0" result="BackgroundImageFix"/><feBlend in="SourceGraphic" in2="BackgroundImageFix" result="shape"/><feColorMatrix in="SourceAlpha" values="0 0 0 0 0 0 0 0 0 0 0 0 0 0 0 0 0 0 127 0" result="hardAlpha"/><feOffset dx="1.25" dy="-1.25"/><feGaussianBlur stdDeviation=".75"/><feComposite in2="hardAlpha" operator="arithmetic" k2="-1" k3="1"/><feColorMatrix values="0 0 0 0 0.776471 0 0 0 0 0.541176 0 0 0 0 0.52549 0 0 0 1 0"/><feBlend in2="shape" result="effect1_innerShadow_20020_6765"/><feColorMatrix in="SourceAlpha" values="0 0 0 0 0 0 0 0 0 0 0 0 0 0 0 0 0 0 127 0" result="hardAlpha"/><feOffset dy="-.4"/><feGaussianBlur stdDeviation=".625"/><feComposite in2="hardAlpha" operator="arithmetic" k2="-1" k3="1"/><feColorMatrix values="0 0 0 0 0.701961 0 0 0 0 0.427451 0 0 0 0 0.564706 0 0 0 1 0"/><feBlend in2="effect1_innerShadow_20020_6765" result="effect2_innerShadow_20020_6765"/><feColorMatrix in="SourceAlpha" values="0 0 0 0 0 0 0 0 0 0 0 0 0 0 0 0 0 0 127 0" result="hardAlpha"/><feOffset dx=".15" dy=".15"/><feGaussianBlur stdDeviation=".25"/><feComposite in2="hardAlpha" operator="arithmetic" k2="-1" k3="1"/><feColorMatrix values="0 0 0 0 0.8 0 0 0 0 0.647059 0 0 0 0 0.517647 0 0 0 1 0"/><feBlend in2="effect2_innerShadow_20020_6765" result="effect3_innerShadow_20020_6765"/></filter><filter id="n" x="3.09" y="6.856" width="27.142" height="18.811" filterUnits="userSpaceOnUse" color-interpolation-filters="sRGB"><feFlood flood-opacity="0" result="BackgroundImageFix"/><feBlend in="SourceGraphic" in2="BackgroundImageFix" result="shape"/><feGaussianBlur stdDeviation="1" result="effect1_foregroundBlur_20020_6765"/></filter></defs></svg>
